!!!SOCIAL_FUNCTION:	songs of the drum religion
!!!PDT:	1932
!!!OTL: No_99_Song_During_Which_the_Wearer_of_"Crow"_Dances.krn
!!!REG: Wisconsin
!!!LANG: Non-Tone
!!!LING_GROUP: Algonquin
**kern
*staff1
=1-
*clefF4
*k[f#]
*M2/4
4.B\
8B\
=2
4.A\
16E\LL
16E\JJ
=3
8E\L
8E\J
8r
16B\LL
16B\JJ
=4
4.B\
8B\
=5
4.A\
16E\LL
16E\JJ
=6
8E\L
8E\J
8r
16E\LL
16E\JJ
=7
4.A\
8F#\
=8
8E\L
8E\J
8E\
8r
=9
12BB/L
12BB/
12BB/J
4AA/
=10
12AA/L
12AA/
12AA/J
4EE/
=11
8EE/L
8EE/J
8r
8EE/
=12
12AA/L
12AA/
12AA/J
8AA/L
8AA/J
=13
12EE/L
12EE/
12EE/J
8EE/L
8EE/J
=14
2EE/
=15
2EE/
==
*-
